usr/share/icons/biglinux-icons-material-dark/symbolic/actions/tab-duplicate.svg

<svg xmlns="http://www.w3.org/2000/svg" viewBox="0 0 16 16">
<defs id="defs3051">
<style id="current-color-scheme" type="text/css">
.ColorScheme-Contrast{color:#dedede}
</style>
</defs>
<path d="M2 2v12h12V5h-1V3H8v2H7V2zm1 1h3v3h7v7H3z" class="ColorScheme-Contrast" style="fill:currentColor;fill-opacity:1;stroke:none"/>
</svg>

<svg xmlns="http://www.w3.org/2000/svg" viewBox="0 0 16 16">
  <defs id="defs3051">
    <style type="text/css" id="current-color-scheme">
      .ColorScheme-Text {
        color:#dedede;
      }
      </style>
  </defs>
 <path style="fill:currentColor;fill-opacity:1;stroke:none" 
     d="M 2 2 L 2 14 L 14 14 L 14 5 L 13 5 L 13 3 L 8 3 L 8 5 L 7 5 L 7 2 L 6 2 L 2 2 z M 3 3 L 6 3 L 6 5 L 6 6 L 13 6 L 13 13 L 3 13 L 3 3 z "
     class="ColorScheme-Text"
     />
</svg>
